icon/lg/glint.svg

<?xml version="1.0" encoding="UTF-8" standalone="no"?>
<svg viewBox="0 0 512 133" version="1.1" xmlns="http://www.w3.org/2000/svg" xmlns:xlink="http://www.w3.org/1999/xlink" preserveAspectRatio="xMidYMid" height="1em" width="1em">
  <g>
    <path d="M169.19055,104.133614 C169.19055,125.388101 187.171431,129.921248 187.171431,129.921248 L228.272156,129.921248 L228.272156,104.133614 L169.19055,104.133614" fill="#6BBFA4"/>
    <path d="M247.309973,3.23967251 L272.66545,3.23967251 L272.66545,130.468179 L247.309973,130.468179 L247.309973,3.23967251 Z" fill="#73BE88"/>
    <path d="M385.422222,130.468179 L320.899244,45.4971384 L320.808421,130.468179 L295.453942,130.468179 L295.453942,3.23967251 L319.172616,3.23967251 L383.787415,88.2097154 L383.787415,3.23967251 L409.232717,3.23967251 L409.232717,130.468179 L385.422222,130.468179" fill="#A3CC69"/>
    <path d="M486.734347,28.9354854 C486.734347,7.68099805 468.753466,3.14785185 468.753466,3.14785185 L427.653739,3.14785185 L427.653739,28.9354854 L486.734347,28.9354854" fill="#ECE23C"/>
    <path d="M169.19055,104.133614 L169.168593,104.813287 L169.168593,3.14385965 L144.156444,3.14385965 L144.156444,107.266495 C144.156444,119.781053 153.148881,129.924242 169.168593,129.924242 L184.981708,129.921248 L187.171431,129.921248 C187.171431,129.921248 169.19055,125.388101 169.19055,104.133614 L169.19055,104.133614 Z M486.734347,28.9354854 L486.757302,28.2558129 L486.757302,129.924242 L511.768452,129.924242 L511.768452,25.8026043 C511.768452,13.2880468 502.776016,3.14385965 486.757302,3.14385965 L470.943189,3.14785185 L468.753466,3.14785185 C468.753466,3.14785185 486.734347,7.68099805 486.734347,28.9354854 L486.734347,28.9354854 Z M115.414581,20.4151267 L97.1482573,38.3171618 C89.8784561,29.9574893 79.517692,24.9592515 66.4312515,24.9592515 C43.1666901,24.9592515 26.2637037,42.043883 26.2637037,66.8534269 C26.2637037,92.7538402 43.894269,109.111891 65.9771384,109.111891 C86.7884912,109.111891 98.7840624,99.2062378 102.146495,81.0307368 L69.7946823,81.0307368 L69.7946823,59.8560936 L128.319376,59.8560936 C128.591844,62.3093021 128.682667,64.5818635 128.682667,67.0350721 C128.682667,105.567813 102.601606,132.740741 66.5220741,132.740741 C31.2619415,132.740741 0,107.930199 0,66.8534269 C0,28.4125068 28.081154,0.876288499 67.1588304,0.876288499 C87.5150721,0.876288499 104.054768,8.05526706 115.414581,20.4151267 L115.414581,20.4151267 Z" fill="#72736D"/>
  </g>
</svg>

<svg width="512" height="133" xmlns="http://www.w3.org/2000/svg" preserveAspectRatio="xMidYMid"><path d="M169.19 104.134c0 21.254 17.981 25.787 17.981 25.787h41.101v-25.787h-59.081" fill="#6BBFA4"/><path d="M247.31 3.24h25.355v127.228H247.31V3.24Z" fill="#73BE88"/><path d="M385.422 130.468 320.9 45.498l-.09 84.97h-25.355V3.24h23.719l64.614 84.97V3.24h25.446v127.228h-23.81" fill="#A3CC69"/><path d="M486.734 28.935c0-21.254-17.98-25.787-17.98-25.787h-41.1v25.787h59.08" fill="#ECE23C"/><path d="m169.19 104.134-.021.68V3.143h-25.013v104.122c0 12.515 8.993 22.658 25.013 22.658l15.813-.003h2.19s-17.981-4.533-17.981-25.787Zm317.544-75.199.023-.68v101.67h25.011V25.802c0-12.515-8.992-22.66-25.01-22.66l-15.815.005h-2.19s17.981 4.533 17.981 25.787Zm-371.32-8.52L97.149 38.317c-7.27-8.36-17.63-13.358-30.717-13.358-23.264 0-40.167 17.085-40.167 41.894 0 25.9 17.63 42.259 39.713 42.259 20.811 0 32.807-9.906 36.17-28.081H69.794V59.856h58.524c.273 2.453.364 4.726.364 7.18 0 38.532-26.081 65.705-62.16 65.705C31.261 132.74 0 107.93 0 66.853 0 28.413 28.081.876 67.159.876c20.356 0 36.896 7.18 48.256 19.54Z" fill="#72736D"/></svg>
